;FLAVOR:Marlin
;TIME:3524
;Filament used: 1.15593m
;Layer height: 0.12
;MINX:129.558
;MINY:134.862
;MINZ:0.12
;MAXX:170.436
;MAXY:166.082
;MAXZ:31.56
;Generated with Creality Slicer 4.8.2-218
M140 S60
M105
M190 S60
M104 S210
M105
M109 S210
M82 ;absolute extrusion mode

G28 ;Home

G92 E0 ;Reset Extruder
G1 Z2.0 F3000 ;Move Z Axis up
G1 X10.1 Y20 Z0.28 F5000.0 ;Move to start position
G1 X10.1 Y200.0 Z0.28 F1500.0 E15 ;Draw the first line
G1 X10.4 Y200.0 Z0.28 F5000.0 ;Move to side a little
G1 X10.4 Y20 Z0.28 F1500.0 E30 ;Draw the second line
G92 E0 ;Reset Extruder
G1 Z2.0 F3000 ;Move Z Axis up

G92 E0
G92 E0
G1 F3600 E-5
;LAYER_COUNT:263
;LAYER:0
M107
G0 F6000 X132.973 Y144.048 Z0.12
;TYPE:SKIRT
G1 F3600 E0
G1 F1200 X133.555 Y143.514 E0.01576
G1 X134.178 Y143.05 E0.03126
G1 X135.669 Y142.05 E0.06709
G1 X136.347 Y141.644 E0.08286
G1 X136.635 Y141.508 E0.08922
G1 X137.008 Y140.821 E0.10482
G1 X137.419 Y140.146 E0.12059
G1 X137.969 Y139.432 E0.13858
G1 X138.344 Y138.999 E0.15001
G1 X138.89 Y138.429 E0.16576
G1 X139.492 Y137.917 E0.18153
G1 X140.142 Y137.468 E0.19729
G1 X140.604 Y137.204 E0.20791
G1 X141.124 Y136.93 E0.21964
G1 X141.97 Y136.547 E0.23817
G1 X144.92 Y135.417 E0.30122
G1 X145.671 Y135.172 E0.31698
G1 X146.442 Y135.005 E0.33272
G1 X147.158 Y134.921 E0.34711
G1 X147.806 Y134.875 E0.36007
G1 X148.688 Y134.862 E0.37768
G1 X152.658 Y135.03 E0.45697
G1 X153.411 Y135.099 E0.47206
G1 X154.01 Y135.183 E0.48413
G1 X154.786 Y135.332 E0.4999
G1 X155.823 Y135.665 E0.52164
G1 X158.011 Y136.54 E0.56866
G1 X158.729 Y136.87 E0.58443
G1 X159.103 Y137.079 E0.59298
G1 X159.461 Y137.292 E0.6013
G1 X160.119 Y137.729 E0.61706
G1 X160.728 Y138.231 E0.63281
G1 X161.532 Y139.083 E0.65619
G1 X162.864 Y140.726 E0.6984
G1 X163.493 Y141.627 E0.72033
G1 X164.174 Y142.008 E0.7359
G1 X164.673 Y142.35 E0.74797
G1 X166.134 Y143.435 E0.78429
G1 X166.786 Y143.976 E0.80119
G1 X167.032 Y144.204 E0.80789
G1 X167.583 Y144.77 E0.82365
G1 X168.075 Y145.388 E0.83942
G1 X168.501 Y146.053 E0.85518
G1 X168.858 Y146.757 E0.87093
G1 X169.018 Y147.146 E0.87932
G1 X169.886 Y149.422 E0.92793
G1 X170.13 Y150.173 E0.94369
G1 X170.288 Y150.894 E0.95842
G1 X170.331 Y151.147 E0.96354
G1 X170.423 Y151.931 E0.97929
G1 X170.436 Y152.721 E0.99506
G1 X170.373 Y153.482 E1.0103
G1 X170.326 Y153.825 E1.01721
G1 X169.985 Y156.048 E1.06209
G1 X169.826 Y156.821 E1.07784
G1 X169.589 Y157.575 E1.09361
G1 X169.278 Y158.3 E1.10936
G1 X168.895 Y158.991 E1.12512
G1 X168.374 Y159.728 E1.14313
G1 X168.256 Y159.876 E1.14691
G1 X167.633 Y160.567 E1.16548
G1 X165.487 Y162.683 E1.22562
G1 X164.898 Y163.208 E1.24137
G1 X164.258 Y163.671 E1.25713
G1 X163.575 Y164.067 E1.27289
G1 X162.855 Y164.392 E1.28865
G1 X162.205 Y164.614 E1.30236
G1 X161.898 Y164.704 E1.30874
G1 X161.524 Y164.804 E1.31647
G1 X157.515 Y165.766 E1.39874
G1 X156.453 Y165.944 E1.42023
G1 X156.105 Y165.978 E1.42721
G1 X155.408 Y166.015 E1.44114
G1 X146.77 Y166.082 E1.61352
G1 X145.767 Y166.075 E1.63354
G1 X144.658 Y165.988 E1.65574
G1 X144.26 Y165.928 E1.66377
G1 X143.953 Y165.875 E1.66999
G1 X138.747 Y164.876 E1.77578
G1 X137.98 Y164.688 E1.79153
G1 X137.236 Y164.424 E1.80729
G1 X136.213 Y163.91 E1.83014
G1 X135.999 Y163.782 E1.83511
G1 X135.356 Y163.353 E1.85054
G1 X133.695 Y162.121 E1.89181
G1 X133.086 Y161.619 E1.90756
G1 X132.53 Y161.058 E1.92332
G1 X131.903 Y160.258 E1.9436
G1 X131.795 Y160.1 E1.94742
G1 X131.3 Y159.269 E1.96673
G1 X130.493 Y157.702 E2.0019
G1 X130.167 Y156.983 E2.01765
G1 X129.916 Y156.234 E2.03342
G1 X129.742 Y155.464 E2.04917
G1 X129.666 Y154.907 E2.06039
G1 X129.64 Y154.647 E2.06561
G1 X129.602 Y154.013 E2.07828
G1 X129.583 Y152.957 E2.09936
G1 X129.576 Y152.722 E2.10405
G1 X129.558 Y151.688 E2.12469
G1 X129.584 Y150.899 E2.14044
G1 X129.69 Y150.116 E2.15621
G1 X129.875 Y149.348 E2.17197
G1 X130.136 Y148.603 E2.18773
G1 X130.44 Y147.948 E2.20214
G1 X131.37 Y146.163 E2.2423
G1 X131.769 Y145.482 E2.25805
G1 X132.236 Y144.845 E2.27382
G1 X132.737 Y144.287 E2.28878
G1 X132.973 Y144.048 E2.29548
G0 F6000 X133.257 Y144.329
G1 F1200 X133.826 Y143.81 E2.31085
G1 X134.401 Y143.382 E2.32516
G1 X135.892 Y142.382 E2.36099
G1 X136.552 Y141.988 E2.37632
G1 X136.923 Y141.816 E2.38449
G1 X137.359 Y141.011 E2.40276
G1 X137.761 Y140.355 E2.41811
G1 X138.271 Y139.693 E2.43479
G1 X138.646 Y139.26 E2.44622
G1 X139.179 Y138.706 E2.46156
G1 X139.767 Y138.21 E2.47691
G1 X140.403 Y137.777 E2.49226
G1 X140.79 Y137.558 E2.50114
G1 X141.31 Y137.284 E2.51287
G1 X142.113 Y136.921 E2.53045
G1 X145.063 Y135.791 E2.5935
G1 X145.795 Y135.553 E2.60886
G1 X146.547 Y135.393 E2.6242
G1 X147.186 Y135.32 E2.63703
G1 X147.834 Y135.274 E2.65
G1 X148.671 Y135.262 E2.6667
G1 X152.641 Y135.43 E2.746
G1 X153.356 Y135.495 E2.76033
G1 X153.955 Y135.579 E2.7724
G1 X154.71 Y135.725 E2.78774
G1 X155.675 Y136.036 E2.80798
G1 X157.863 Y136.911 E2.855
G1 X158.561 Y137.233 E2.87034
G1 X158.899 Y137.422 E2.87807
G1 X159.257 Y137.635 E2.88638
G1 X159.896 Y138.063 E2.90173
G1 X160.488 Y138.554 E2.91708
G1 X161.221 Y139.335 E2.93846
G1 X162.553 Y140.978 E2.98066
G1 X163.156 Y141.84 E3.00166
G1 X163.218 Y141.944 E3.00407
G1 X163.343 Y141.999 E3.0068
G1 X164.012 Y142.379 E3.02215
G1 X164.435 Y142.671 E3.03241
G1 X165.896 Y143.756 E3.06873
G1 X166.514 Y144.27 E3.08477
G1 X166.76 Y144.498 E3.09146
G1 X167.296 Y145.049 E3.1068
G1 X167.772 Y145.653 E3.12215
G1 X168.183 Y146.303 E3.1375
G1 X168.644 Y147.288 E3.1592
G1 X169.512 Y149.564 E3.20781
G1 X169.749 Y150.296 E3.22316
G1 X169.893 Y150.961 E3.23674
G1 X169.936 Y151.214 E3.24186
G1 X170.026 Y151.978 E3.25722
G1 X170.035 Y152.747 E3.27256
G1 X169.976 Y153.429 E3.28622
G1 X169.93 Y153.764 E3.29297
G1 X169.589 Y155.987 E3.33785
G1 X169.433 Y156.74 E3.3532
G1 X169.2 Y157.473 E3.36855
G1 X168.892 Y158.178 E3.3839
G1 X168.512 Y158.847 E3.39926
G1 X168.061 Y159.478 E3.41473
G1 X167.943 Y159.626 E3.41851
G1 X167.353 Y160.282 E3.43612
G1 X165.207 Y162.398 E3.49626
G1 X164.632 Y162.909 E3.51161
G1 X164.007 Y163.358 E3.52697
G1 X163.339 Y163.739 E3.54232
G1 X162.635 Y164.048 E3.55766
G1 X162.093 Y164.23 E3.56907
G1 X161.786 Y164.32 E3.57545
G1 X161.431 Y164.415 E3.58279
G1 X157.422 Y165.377 E3.66506
G1 X156.415 Y165.546 E3.68544
G1 X156.067 Y165.58 E3.69242
G1 X155.405 Y165.615 E3.70565
G1 X146.772 Y165.682 E3.87793
G1 X145.769 Y165.675 E3.89795
G1 X144.718 Y165.592 E3.91899
G1 X144.32 Y165.532 E3.92702
G1 X144.028 Y165.482 E3.93293
G1 X138.822 Y164.483 E4.03872
G1 X138.076 Y164.299 E4.05405
G1 X137.352 Y164.039 E4.0694
G1 X136.418 Y163.567 E4.09029
G1 X136.204 Y163.439 E4.09526
G1 X135.595 Y163.032 E4.10988
G1 X133.934 Y161.8 E4.15115
G1 X133.34 Y161.31 E4.16652
G1 X132.801 Y160.761 E4.18187
G1 X132.233 Y160.032 E4.20031
G1 X132.125 Y159.874 E4.20413
G1 X131.655 Y159.086 E4.22244
G1 X130.848 Y157.519 E4.25762
G1 X130.532 Y156.818 E4.27296
G1 X130.29 Y156.088 E4.28831
G1 X130.126 Y155.336 E4.30367
G1 X130.064 Y154.867 E4.31311
G1 X130.038 Y154.607 E4.31832
G1 X130.002 Y154.005 E4.33036
G1 X129.982 Y152.904 E4.35233
G1 X129.976 Y152.715 E4.35611
G1 X129.958 Y151.681 E4.37675
G1 X129.985 Y150.912 E4.3921
G1 X130.091 Y150.15 E4.40745
G1 X130.276 Y149.404 E4.42279
G1 X130.537 Y148.68 E4.43815
G1 X130.794 Y148.133 E4.45021
G1 X131.724 Y146.348 E4.49038
G1 X132.115 Y145.685 E4.50574
G1 X132.572 Y145.066 E4.52109
G1 X133.021 Y144.568 E4.53447
G1 X133.257 Y144.329 E4.54118
G0 F6000 X133.542 Y144.61
G1 F1200 X134.095 Y144.106 E4.55611
G1 X134.624 Y143.714 E4.56925
G1 X136.115 Y142.714 E4.60507
G1 X136.758 Y142.332 E4.62
G1 X137.212 Y142.123 E4.62997
G1 X137.711 Y141.202 E4.65088
G1 X138.102 Y140.564 E4.66581
G1 X138.574 Y139.955 E4.68119
G1 X138.949 Y139.522 E4.69262
G1 X139.468 Y138.984 E4.70754
G1 X140.042 Y138.504 E4.72247
G1 X140.977 Y137.912 E4.74455
G1 X141.497 Y137.638 E4.75628
G1 X142.256 Y137.294 E4.77291
G1 X145.206 Y136.164 E4.83595
G1 X145.918 Y135.934 E4.85089
G1 X146.65 Y135.782 E4.8658
G1 X147.214 Y135.719 E4.87713
G1 X147.862 Y135.673 E4.89009
G1 X148.654 Y135.661 E4.9059
G1 X152.624 Y135.829 E4.9852
G1 X153.3 Y135.891 E4.99874
G1 X153.899 Y135.975 E5.01082
G1 X154.633 Y136.118 E5.02574
G1 X155.526 Y136.407 E5.04447
G1 X157.714 Y137.282 E5.0915
G1 X158.694 Y137.766 E5.11331
G1 X159.052 Y137.979 E5.12162
G1 X159.674 Y138.396 E5.13656
G1 X160.247 Y138.876 E5.15148
G1 X160.911 Y139.587 E5.1709
G1 X162.243 Y141.23 E5.2131
G1 X162.813 Y142.045 E5.23295
G1 X162.941 Y142.26 E5.23795
G1 X163.2 Y142.375 E5.2436
G1 X163.848 Y142.749 E5.25853
G1 X164.196 Y142.992 E5.267
G1 X165.657 Y144.077 E5.30332
G1 X166.242 Y144.563 E5.3185
G1 X166.488 Y144.791 E5.32519
G1 X167.009 Y145.328 E5.34012
G1 X167.469 Y145.918 E5.35505
G1 X167.864 Y146.553 E5.36997
G1 X168.271 Y147.431 E5.38929
G1 X169.139 Y149.707 E5.4379
G1 X169.367 Y150.419 E5.45282
G1 X169.499 Y151.028 E5.46525
G1 X169.542 Y151.281 E5.47037
G1 X169.628 Y152.024 E5.4853
G1 X169.634 Y152.772 E5.50023
G1 X169.58 Y153.377 E5.51235
G1 X169.535 Y153.703 E5.51892
G1 X169.194 Y155.926 E5.5638
G1 X169.041 Y156.659 E5.57874
G1 X168.811 Y157.37 E5.59365
G1 X168.507 Y158.054 E5.60859
G1 X168.131 Y158.7 E5.62351
G1 X167.748 Y159.229 E5.63654
G1 X167.63 Y159.377 E5.64032
G1 X167.072 Y159.997 E5.65696
G1 X164.926 Y162.113 E5.71711
G1 X164.366 Y162.609 E5.73203
G1 X163.756 Y163.043 E5.74697
G1 X163.104 Y163.409 E5.7619
G1 X162.416 Y163.703 E5.77683
G1 X161.98 Y163.846 E5.78598
G1 X161.673 Y163.936 E5.79237
G1 X161.337 Y164.026 E5.79931
G1 X157.328 Y164.988 E5.88158
G1 X156.376 Y165.148 E5.90085
G1 X156.028 Y165.182 E5.90783
G1 X155.402 Y165.215 E5.92034
G1 X146.775 Y165.282 E6.0925
G1 X145.772 Y165.275 E6.11252
G1 X144.778 Y165.197 E6.13242
G1 X144.38 Y165.137 E6.14045
G1 X144.104 Y165.09 E6.14604
G1 X138.898 Y164.091 E6.25182
G1 X138.172 Y163.911 E6.26675
G1 X137.469 Y163.654 E6.28169
G1 X136.624 Y163.223 E6.30062
G1 X136.41 Y163.095 E6.30559
G1 X135.833 Y162.71 E6.31944
G1 X134.172 Y161.478 E6.36071
G1 X133.596 Y161.001 E6.37563
G1 X133.074 Y160.465 E6.39056
G1 X132.563 Y159.806 E6.4072
G1 X132.455 Y159.648 E6.41102
G1 X132.011 Y158.903 E6.42833
G1 X131.204 Y157.336 E6.4635
G1 X130.897 Y156.654 E6.47843
G1 X130.665 Y155.942 E6.49337
G1 X130.511 Y155.21 E6.5083
G1 X130.462 Y154.828 E6.51599
G1 X130.436 Y154.568 E6.5212
G1 X130.402 Y153.998 E6.5326
G1 X130.379 Y152.814 E6.55623
G1 X130.358 Y151.674 E6.57898
G1 X130.385 Y150.926 E6.59392
G1 X130.492 Y150.186 E6.60884
G1 X130.677 Y149.461 E6.62377
G1 X130.938 Y148.76 E6.6387
G1 X131.149 Y148.318 E6.64847
G1 X132.079 Y146.533 E6.68864
G1 X132.46 Y145.889 E6.70357
G1 X132.907 Y145.289 E6.7185
G1 X133.306 Y144.849 E6.73036
G1 X133.542 Y144.61 E6.73706
G0 F6000 X133.827 Y144.891
G1 F1200 X134.365 Y144.403 E6.75155
G1 X134.847 Y144.047 E6.76351
G1 X136.338 Y143.047 E6.79934
G1 X136.962 Y142.676 E6.81383
G1 X137.5 Y142.432 E6.82562
G1 X138.063 Y141.393 E6.8492
G1 X138.444 Y140.774 E6.8637
G1 X138.876 Y140.217 E6.87777
G1 X139.251 Y139.784 E6.8892
G1 X139.756 Y139.262 E6.9037
G1 X140.315 Y138.799 E6.91818
G1 X141.163 Y138.266 E6.93817
G1 X141.683 Y137.992 E6.9499
G1 X142.399 Y137.668 E6.96558
G1 X145.349 Y136.538 E7.02862
G1 X146.041 Y136.316 E7.04313
G1 X146.752 Y136.171 E7.05761
G1 X147.243 Y136.118 E7.06746
G1 X147.891 Y136.072 E7.08043
G1 X148.637 Y136.061 E7.09532
G1 X152.607 Y136.229 E7.17461
G1 X153.245 Y136.287 E7.1874
G1 X153.844 Y136.371 E7.19947
G1 X154.556 Y136.511 E7.21395
G1 X155.378 Y136.779 E7.2312
G1 X157.566 Y137.654 E7.27823
G1 X158.49 Y138.11 E7.29879
G1 X158.848 Y138.323 E7.3071
G1 X159.451 Y138.728 E7.3216
G1 X160.005 Y139.197 E7.33608
G1 X160.6 Y139.839 E7.35355
G1 X161.932 Y141.482 E7.39576
G1 X162.469 Y142.25 E7.41446
G1 X162.646 Y142.566 E7.42169
G1 X163.056 Y142.75 E7.43066
G1 X163.958 Y143.313 E7.45188
G1 X165.419 Y144.398 E7.48819
G1 X165.97 Y144.856 E7.50249
G1 X166.216 Y145.084 E7.50919
G1 X166.721 Y145.607 E7.52369
G1 X167.166 Y146.181 E7.53819
G1 X167.544 Y146.801 E7.55268
G1 X167.897 Y147.573 E7.56962
G1 X168.765 Y149.849 E7.61823
G1 X168.986 Y150.541 E7.63273
G1 X169.105 Y151.095 E7.64404
G1 X169.148 Y151.348 E7.64916
G1 X169.23 Y152.07 E7.66366
G1 X169.232 Y152.796 E7.67815
G1 X169.183 Y153.324 E7.68873
G1 X169.14 Y153.643 E7.69515
G1 X168.799 Y155.866 E7.74003
G1 X168.649 Y156.577 E7.75453
G1 X168.423 Y157.267 E7.76902
G1 X168.121 Y157.928 E7.78353
G1 X167.749 Y158.552 E7.79802
G1 X167.436 Y158.979 E7.80859
G1 X167.318 Y159.127 E7.81237
G1 X166.791 Y159.713 E7.82809
G1 X164.645 Y161.829 E7.88824
G1 X164.1 Y162.309 E7.90273
G1 X163.506 Y162.727 E7.91722
G1 X162.87 Y163.078 E7.93172
G1 X161.868 Y163.462 E7.95314
G1 X161.561 Y163.552 E7.95952
G1 X161.244 Y163.637 E7.96607
G1 X157.235 Y164.599 E8.04834
G1 X156.337 Y164.75 E8.06652
G1 X155.989 Y164.784 E8.07349
G1 X155.399 Y164.815 E8.08528
G1 X146.778 Y164.882 E8.25733
G1 X145.775 Y164.875 E8.27735
G1 X144.837 Y164.801 E8.29612
G1 X144.439 Y164.741 E8.30416
G1 X144.179 Y164.697 E8.30942
G1 X138.973 Y163.698 E8.41521
G1 X138.268 Y163.522 E8.42971
G1 X137.587 Y163.269 E8.4442
G1 X136.829 Y162.88 E8.46121
G1 X136.615 Y162.752 E8.46618
G1 X136.071 Y162.389 E8.47923
G1 X134.41 Y161.157 E8.5205
G1 X133.851 Y160.693 E8.535
G1 X133.347 Y160.17 E8.5495
G1 X132.893 Y159.58 E8.56435
G1 X132.785 Y159.422 E8.56817
G1 X132.366 Y158.72 E8.58449
G1 X131.559 Y157.153 E8.61966
G1 X131.263 Y156.49 E8.63415
G1 X131.041 Y155.798 E8.64865
G1 X130.86 Y154.788 E8.66913
G1 X130.834 Y154.528 E8.67434
G1 X130.802 Y153.991 E8.68508
G1 X130.779 Y152.801 E8.70883
G1 X130.758 Y151.667 E8.73147
G1 X130.785 Y150.941 E8.74596
G1 X130.892 Y150.223 E8.76045
G1 X131.078 Y149.52 E8.77496
G1 X131.339 Y148.843 E8.78944
G1 X131.504 Y148.502 E8.797
G1 X132.434 Y146.717 E8.83717
G1 X132.804 Y146.093 E8.85165
G1 X133.241 Y145.512 E8.86615
G1 X133.591 Y145.13 E8.87649
G1 X133.827 Y144.891 E8.8832
G0 F6000 X134.111 Y145.172
G1 F1200 X134.634 Y144.7 E8.89726
G1 X135.07 Y144.379 E8.90806
G1 X136.561 Y143.379 E8.94389
G1 X137.167 Y143.021 E8.95793
G1 X137.785 Y142.744 E8.97145
G1 X138.414 Y141.583 E8.9978
G1 X138.785 Y140.984 E9.01186
G1 X139.178 Y140.479 E9.02463
G1 X139.553 Y140.046 E9.03606
G1 X140.044 Y139.541 E9.05012
G1 X140.588 Y139.095 E9.06415
G1 X141.35 Y138.62 E9.08207
G1 X141.87 Y138.346 E9.0938
G1 X142.542 Y138.041 E9.10853
G1 X145.492 Y136.911 E9.17157
G1 X146.163 Y136.697 E9.18563
G1 X146.853 Y136.56 E9.19967
G1 X147.271 Y136.517 E9.20805
G1 X147.919 Y136.471 E9.22102
G1 X148.62 Y136.461 E9.23501
G1 X152.59 Y136.629 E9.3143
G1 X153.189 Y136.683 E9.3263
G1 X153.788 Y136.767 E9.33838
G1 X154.479 Y136.904 E9.35243
G1 X155.229 Y137.15 E9.36819
G1 X157.417 Y138.025 E9.41521
G1 X158.285 Y138.454 E9.43453
G1 X158.643 Y138.667 E9.44285
G1 X159.227 Y139.06 E9.45689
G1 X159.762 Y139.518 E9.47095
G1 X160.289 Y140.091 E9.48648
G1 X161.621 Y141.734 E9.52869
G1 X162.126 Y142.456 E9.54628
G1 X162.352 Y142.871 E9.55571
G1 X162.911 Y143.126 E9.56797
G1 X163.72 Y143.634 E9.58703
G1 X165.181 Y144.719 E9.62335
G1 X165.699 Y145.15 E9.6368
G1 X165.945 Y145.378 E9.64349
G1 X166.433 Y145.885 E9.65753
G1 X166.861 Y146.444 E9.67158
G1 X167.222 Y147.048 E9.68562
G1 X167.523 Y147.716 E9.70025
G1 X168.391 Y149.992 E9.74886
G1 X168.604 Y150.663 E9.76291
G1 X168.71 Y151.162 E9.77309
G1 X168.753 Y151.415 E9.77821
G1 X168.832 Y152.115 E9.79226
G1 X168.83 Y152.819 E9.80631
G1 X168.787 Y153.271 E9.81537
G1 X168.744 Y153.582 E9.82164
G1 X168.403 Y155.805 E9.86652
G1 X168.257 Y156.494 E9.88058
G1 X168.034 Y157.161 E9.89461
G1 X167.737 Y157.799 E9.90866
G1 X167.369 Y158.4 E9.92272
G1 X167.123 Y158.73 E9.93093
G1 X167.005 Y158.878 E9.93471
G1 X166.51 Y159.428 E9.94948
